X: 1
T:Princess of Wales Waltz % JGi.137
M:3/4
L:1/4
%Q:3/8=60
O:Joshua Gibbons MS, 1823, Tealby, Lincolnshire
R:waltz
A:Tealby,Lincolnshire ca.1823
Z:VMP/R.Greig, 2009
K:C
|: Gge | c2e | d/e/f/e/d/c/ | B/c/d/c/B/A/ | Gge | c2e | d/e/f/d/c/B/ | c2z :|
|: dd/c/B/A/ | GG/A/B/c/ | dd/e/ f/g/ | agf | egg | gfe | fdB | c2z :|
|: eef | gee | fdd | ecc | eef | gee | fdB | c2z :|
|: EGG | Gcc | cec | gec | Acf | Gce | dcB | c3 :|
